outputs/icons/device/wifi_0_sharp.svg

<svg xmlns="http://www.w3.org/2000/svg" width="1200" height="1200" fill="none"><g clip-path="url(#a)"><path fill="#000" d="M600 200c-234.5 0-446.5 95-600 249l600 601 600-601c-153.5-154-365.5-249-600-249M146 453.5C275.5 354 433.5 300 600 300s324.5 54 454 153.5l-454 455z"/></g><defs><clipPath id="a"><path fill="#fff" d="M0 0h1200v1200H0z"/></clipPath></defs></svg>

<svg width="1200" height="1200" viewBox="0 0 1200 1200" fill="none" xmlns="http://www.w3.org/2000/svg"><g clip-path="url(#clip0_133_46)"><path d="M600 200C365.5 200 153.5 295 0 449L600 1050L1200 449C1046.5 295 834.5 200 600 200ZM146 453.5C275.5 354 433.5 300 600 300C766.5 300 924.5 354 1054 453.5L600 908.5L146 453.5Z" fill="black"/></g><defs><clipPath id="clip0_133_46"><path width="24" fill="white" d="M0 0H1200V1200H0V0z"/></clipPath></defs></svg>
